layanan/assets/img/img-systemdev/newlayout/icon-scitem2.svg

<?xml version="1.0" encoding="UTF-8"?>
<svg width="44px" height="36px" viewBox="0 0 44 36" version="1.1" xmlns="http://www.w3.org/2000/svg" xmlns:xlink="http://www.w3.org/1999/xlink">
    <!-- Generator: Sketch 52.1 (67048) - http://www.bohemiancoding.com/sketch -->
    <title>team</title>
    <desc>Created with Sketch.</desc>
    <g id="Page-1" stroke="none" stroke-width="1" fill="none" fill-rule="evenodd">
        <g id="Web-Sistem---Landing-Page-" transform="translate(-449.000000, -5013.000000)">
            <g id="team" transform="translate(449.000000, 5013.000000)">
                <ellipse id="Oval" fill="#FFCA13" cx="22" cy="7.57894737" rx="4.21276596" ry="5.68421053"></ellipse>
                <rect id="Rectangle" fill="#FFCA13" x="30.893617" y="17.0526316" width="13.106383" height="16.1052632"></rect>
                <rect id="Rectangle-Copy-16" fill="#FFCA13" x="1.87234043" y="17.0526316" width="13.106383" height="16.1052632"></rect>
                <path d="M39.8854844,13.9449374 C40.8038125,12.8799854 41.3945469,11.5197309 41.4891641,10.0189835 L41.6089609,8.11961209 C41.7242891,6.2924277 41.0741719,4.47895625 39.8256719,3.14405773 C38.5771719,1.80924545 36.8147656,1.0436495 34.9903984,1.0436495 L34.7508047,1.0436495 C32.9265234,1.0436495 31.1642891,1.80915921 29.9156172,3.14405773 C29.4439063,3.64841789 29.0579609,4.22125649 28.7661172,4.8371313 C28.4505547,3.86799739 27.9283125,2.96768691 27.2226797,2.21321655 C25.9070625,0.806734768 24.050125,0 22.127875,0 L21.8722109,0 C19.9499609,0 18.0929375,0.806734768 16.7774063,2.21321655 C16.0716875,2.96768691 15.5495313,3.86808364 15.2339688,4.8371313 C14.942125,4.22125649 14.5561797,3.64841789 14.0844688,3.14405773 C12.8358828,1.80924545 11.0735625,1.0436495 9.24928125,1.0436495 L9.0096875,1.0436495 C7.18532031,1.0436495 5.423,1.80924545 4.17441406,3.14405773 C2.92591406,4.47895625 2.27579688,6.2924277 2.391125,8.11952584 L2.51092188,10.0189835 C2.605625,11.5197309 3.19627344,12.8799854 4.11460156,13.9448512 C1.68102344,15.1356345 0,17.6433774 0,20.5381873 L0,31.0751576 C0,33.2151523 1.73482031,34.956178 3.8671875,34.956178 L13.5805313,34.956178 C14.2716406,35.6030147 15.197875,36 16.2152891,36 L27.784625,36 C28.8020391,36 29.7282734,35.603101 30.4193828,34.956178 L40.1328125,34.956178 C42.2651797,34.956178 44,33.2151523 44,31.0751576 L44,20.5381873 C44,17.6433774 42.3189766,15.1356345 39.8854844,13.9449374 Z M11.878625,24.173496 L12.3481875,24.173496 L12.3481875,32.1189796 C12.3481875,32.2029822 12.3517969,32.2861222 12.357125,32.3688311 L3.8671875,32.3688311 C3.15639844,32.3688311 2.578125,31.7884892 2.578125,31.0751576 L2.578125,20.5381873 C2.578125,19.1629262 3.16490625,17.9230696 4.09973437,17.0558771 L4.796,17.8512276 C5.89101562,19.1019511 7.47054687,19.8192499 9.12948437,19.8192499 C10.3602812,19.8191636 11.5467344,19.4235583 12.5246172,18.7090193 C12.4103203,19.2232114 12.3481875,19.7568086 12.3481875,20.3050674 L12.3481875,21.5861491 L11.878625,21.5861491 C11.1667187,21.5861491 10.5895625,22.1653698 10.5895625,22.8798225 C10.5895625,23.5942753 11.1667187,24.173496 11.878625,24.173496 Z M6.49042969,15.8667325 C6.58960156,15.8493972 6.68946094,15.8344769 6.79052344,15.8234375 C7.51978906,16.1008874 8.30800781,16.2541445 9.1293125,16.2541445 C9.95061719,16.2541445 10.7388359,16.1008874 11.4681875,15.8234375 C11.56925,15.8344769 11.6691094,15.8493972 11.7681953,15.8667325 L11.5259375,16.1434061 C10.9203359,16.8350902 10.0468672,17.2318167 9.12939844,17.2318167 C8.21184375,17.2318167 7.33828906,16.8350902 6.7326875,16.1434061 L6.49042969,15.8667325 Z M13.294875,7.95626425 L13.1749922,9.85572187 C13.0402422,11.9927842 11.2631406,13.6668839 9.12939844,13.6668839 C6.99565625,13.6668839 5.21864062,11.9926979 5.08371875,9.85563562 L4.96392188,7.95617801 C4.89250781,6.82292006 5.27957031,5.74287521 6.05403906,4.9149242 C6.82842187,4.08697319 7.8780625,3.63108266 9.00960156,3.63108266 L9.24919531,3.63108266 C10.3806484,3.63108266 11.4302031,4.08705943 12.2046719,4.9149242 C12.9791406,5.74287521 13.3662891,6.82300631 13.294875,7.95626425 Z M18.6572031,3.98399678 C19.4996484,3.08334132 20.6412422,2.58734692 21.8722109,2.58734692 L22.127875,2.58734692 C23.3587578,2.58734692 24.5005234,3.08334132 25.3429688,3.98399678 C26.1854141,4.88465224 26.6064219,6.05956648 26.5287344,7.29235104 L26.4010313,9.31824367 C26.2543359,11.6430611 24.3212578,13.4642084 22.0000859,13.4642084 C19.6789141,13.4642084 17.7458359,11.6430611 17.5991406,9.31832992 L17.4714375,7.29235104 C17.39375,6.05956648 17.8147578,4.88465224 18.6572031,3.98399678 Z M25.0279219,15.6116201 L24.6208359,16.0766525 C23.9586016,16.8331065 23.0033203,17.2669184 22,17.2669184 C20.9966797,17.2669184 20.0413984,16.8331065 19.3791641,16.0766525 L18.9720781,15.6116201 C19.1302891,15.5886789 19.2910781,15.5736723 19.4539297,15.566859 C20.2449844,15.8791517 21.1039297,16.0515553 22,16.0515553 C22.8960703,16.0515553 23.7550156,15.8791517 24.5460703,15.566859 C24.7090078,15.5736723 24.8697109,15.5886789 25.0279219,15.6116201 Z M15.4725313,11.5366349 C15.7630859,12.2983498 16.1818594,12.9950361 16.7016953,13.6015965 C16.1433594,13.8501543 15.6219766,14.1668455 15.1474297,14.5412346 C14.8303203,14.3172566 14.4955938,14.1168235 14.1442813,13.9449374 C14.7411172,13.2528221 15.1990781,12.4359967 15.4725313,11.5366349 Z M29.0736875,32.1189796 C29.0736875,32.8323112 28.4954141,33.4126531 27.784625,33.4126531 L16.215375,33.4126531 C15.5045,33.4126531 14.9263125,32.8323112 14.9263125,32.1189796 L14.9263125,20.3051536 C14.9263125,18.8885812 15.5491016,17.6159515 16.5333438,16.7459992 L17.4423906,17.7843878 C18.5939531,19.0998812 20.2552109,19.8542653 22,19.8542653 C23.7447891,19.8542653 25.4060469,19.0998812 26.5576094,17.7843878 L27.4666562,16.7459992 C28.4509844,17.6158652 29.0736875,18.8884949 29.0736875,20.3051536 L29.0736875,32.1189796 Z M28.8526562,14.5413209 C28.3781094,14.1669318 27.8567266,13.8502405 27.2983906,13.6016827 C27.8181406,12.9950361 28.2369141,12.2983498 28.5274687,11.5366349 C28.8010078,12.4359967 29.2588828,13.2529084 29.8558047,13.9450237 C29.5044922,14.1169097 29.1697656,14.3172566 28.8526562,14.5413209 Z M30.7052109,7.95626425 C30.6337969,6.82292006 31.0209453,5.74287521 31.7954141,4.9149242 C32.5697969,4.08697319 33.6193516,3.63108266 34.7508047,3.63108266 L34.9903984,3.63108266 C36.1219375,3.63108266 37.1715781,4.08705943 37.9459609,4.9149242 C38.7204297,5.74287521 39.1074922,6.82292006 39.0360781,7.95626425 L38.9162812,9.85563562 C38.7814453,11.9927842 37.0044297,13.6667976 34.8706875,13.6667976 C32.7369453,13.6667976 30.9598437,11.9926979 30.8250937,9.85563562 L30.7052109,7.95626425 Z M37.5094844,15.8667325 L37.2673125,16.1434061 C36.6617109,16.8351764 35.7881562,17.2319029 34.8706016,17.2319029 C33.9531328,17.2319029 33.0796641,16.8351764 32.4740625,16.1434923 L32.2318047,15.8668187 C32.3308906,15.8493972 32.43075,15.8344769 32.5318125,15.8234375 C33.2610781,16.1008874 34.0493828,16.2541445 34.8706875,16.2541445 C35.6919922,16.2541445 36.4802109,16.1008874 37.2094766,15.8234375 C37.3105391,15.8344769 37.4103984,15.8493972 37.5094844,15.8667325 Z M41.421875,31.0751576 C41.421875,31.7884892 40.8436016,32.3688311 40.1328125,32.3688311 L31.6429609,32.3688311 C31.6482891,32.2861222 31.6518984,32.2029822 31.6518984,32.1189796 L31.6518984,20.3051536 C31.6518984,19.7568948 31.5896797,19.2232976 31.4754688,18.7091055 C32.4533516,19.4236445 33.6398906,19.8192499 34.8706016,19.8193361 L34.8706875,19.8193361 C36.5295391,19.8193361 38.1091563,19.1019511 39.2040859,17.8512276 L39.9003516,17.0559634 C40.8350938,17.9230696 41.421875,19.1629262 41.421875,20.5381873 L41.421875,31.0751576 Z" id="Shape" fill="#000000" fill-rule="nonzero"></path>
                <path d="M37.9457269,21.7894737 L36.9478901,21.7894737 C36.1893949,21.7894737 35.5744681,22.4257263 35.5744681,23.2105263 C35.5744681,23.9953263 36.1893949,24.6315789 36.9478901,24.6315789 L37.9457269,24.6315789 C38.7042221,24.6315789 39.3191489,23.9953263 39.3191489,23.2105263 C39.3191489,22.4257263 38.7042221,21.7894737 37.9457269,21.7894737 Z" id="Path" fill="#000000" fill-rule="nonzero"></path>
                <path d="M25.7994692,21.7894737 L24.7537223,21.7894737 C24.0084567,21.7894737 23.4042553,22.4257263 23.4042553,23.2105263 C23.4042553,23.9953263 24.0084567,24.6315789 24.7537223,24.6315789 L25.7994692,24.6315789 C26.5447348,24.6315789 27.1489362,23.9953263 27.1489362,23.2105263 C27.1489362,22.4257263 26.5447348,21.7894737 25.7994692,21.7894737 Z" id="Path" fill="#000000" fill-rule="nonzero"></path>
            </g>
        </g>
    </g>
</svg>

<svg id="Layer_1" data-name="Layer 1" xmlns="http://www.w3.org/2000/svg" viewBox="0 0 44 36"><ellipse cx="22" cy="7.58" rx="4.21" ry="5.68" style="fill:#ffca13"/><path d="M30.89,17.05H44V33.16H30.89Z" transform="translate(0 0)" style="fill:#ffca13;fill-rule:evenodd"/><path d="M1.87,17.05H15V33.16H1.87Z" transform="translate(0 0)" style="fill:#ffca13;fill-rule:evenodd"/><path d="M39.89,13.94A6.69,6.69,0,0,0,41.49,10l.12-1.9a6.76,6.76,0,0,0-1.78-5A6.68,6.68,0,0,0,35,1h-.24a6.64,6.64,0,0,0-4.83,2.1,6.45,6.45,0,0,0-1.15,1.7,7.1,7.1,0,0,0-1.55-2.63A7,7,0,0,0,22.13,0h-.26a7,7,0,0,0-5.09,2.21,7.1,7.1,0,0,0-1.55,2.63,6.45,6.45,0,0,0-1.15-1.7A6.64,6.64,0,0,0,9.25,1H9a6.68,6.68,0,0,0-4.84,2.1,6.76,6.76,0,0,0-1.78,5L2.51,10a6.69,6.69,0,0,0,1.6,3.92A7.36,7.36,0,0,0,0,20.54V31.08A3.88,3.88,0,0,0,3.87,35h9.71a3.88,3.88,0,0,0,2.64,1H27.78a3.88,3.88,0,0,0,2.64-1h9.71A3.88,3.88,0,0,0,44,31.08V20.54A7.36,7.36,0,0,0,39.89,13.94Zm-28,10.23h.47v7.95a2.09,2.09,0,0,0,0,.25H3.87a1.29,1.29,0,0,1-1.29-1.29V20.54A4.69,4.69,0,0,1,4.1,17.06l.7.79a5.74,5.74,0,0,0,7.72.86,7.62,7.62,0,0,0-.17,1.6v1.28h-.47a1.29,1.29,0,1,0,0,2.58Zm-5.39-8.3.3,0a6.58,6.58,0,0,0,4.68,0l.3,0-.24.27a3.19,3.19,0,0,1-4.8,0ZM13.29,8l-.12,1.9a4.05,4.05,0,0,1-8.09,0L5,8A4.06,4.06,0,0,1,9,3.63h.24a4.06,4.06,0,0,1,4,4.33Zm5.37-4a4.34,4.34,0,0,1,3.21-1.39h.26a4.42,4.42,0,0,1,4.4,4.7l-.13,2a4.41,4.41,0,0,1-8.8,0l-.13-2A4.36,4.36,0,0,1,18.66,4ZM25,15.61l-.41.47a3.48,3.48,0,0,1-5.24,0L19,15.61a3.88,3.88,0,0,1,.48,0,7,7,0,0,0,5.1,0A3.88,3.88,0,0,1,25,15.61Zm-9.56-4.07A6.92,6.92,0,0,0,16.7,13.6a7.37,7.37,0,0,0-1.55.94,8.4,8.4,0,0,0-1-.6A6.5,6.5,0,0,0,15.47,11.54Zm13.6,20.58a1.29,1.29,0,0,1-1.29,1.29H16.22a1.29,1.29,0,0,1-1.29-1.29V20.31a4.74,4.74,0,0,1,1.6-3.56l.91,1a6.06,6.06,0,0,0,9.12,0l.91-1a4.74,4.74,0,0,1,1.6,3.56Zm-.22-17.58a7.37,7.37,0,0,0-1.55-.94,6.92,6.92,0,0,0,1.23-2.06A6.62,6.62,0,0,0,29.86,14,7.21,7.21,0,0,0,28.85,14.54ZM30.71,8a4.06,4.06,0,0,1,4-4.33H35A4.06,4.06,0,0,1,39,8l-.12,1.9a4.05,4.05,0,0,1-8.09,0Zm6.8,7.91-.24.27a3.19,3.19,0,0,1-4.8,0l-.24-.27.3,0a6.58,6.58,0,0,0,4.68,0Zm3.91,15.21a1.29,1.29,0,0,1-1.29,1.29H31.64a2.09,2.09,0,0,0,0-.25V20.31a7.62,7.62,0,0,0-.17-1.6,5.75,5.75,0,0,0,3.39,1.11h0a5.75,5.75,0,0,0,4.33-2l.7-.79a4.69,4.69,0,0,1,1.52,3.48Z" transform="translate(0 0)"/><path d="M38,21.79H37a1.42,1.42,0,0,0,0,2.84h1a1.42,1.42,0,0,0,0-2.84Z" transform="translate(0 0)"/><path d="M25.8,21.79H24.75a1.42,1.42,0,0,0,0,2.84H25.8a1.42,1.42,0,0,0,0-2.84Z" transform="translate(0 0)"/></svg>
